collections/assainissement/svg_nb/ASS_PUITSINFILTRATION.svg

<?xml version="1.0" encoding="UTF-8"?>
<svg id="svg9" width="99" height="99" version="1.1" xmlns="http://www.w3.org/2000/svg" xmlns:cc="http://creativecommons.org/ns#" xmlns:dc="http://purl.org/dc/elements/1.1/" xmlns:rdf="http://www.w3.org/1999/02/22-rdf-syntax-ns#">
 <metadata id="metadata829">
  <rdf:RDF>
   <cc:Work rdf:about="">
    <dc:format>image/svg+xml</dc:format>
    <dc:type rdf:resource="http://purl.org/dc/dcmitype/StillImage"/>
    <cc:license rdf:resource="http://creativecommons.org/licenses/by-sa/4.0/"/>
    <dc:creator>
     <cc:Agent>
      <dc:title>ASTEE</dc:title>
     </cc:Agent>
    </dc:creator>
    <dc:contributor>
     <cc:Agent>
      <dc:title>ASTEE; Le Grand Lyon</dc:title>
     </cc:Agent>
    </dc:contributor>
    <dc:language>FR</dc:language>
    <dc:subject>
     <rdf:Bag>
      <rdf:li>eau</rdf:li>
      <rdf:li>potable</rdf:li>
      <rdf:li>assainissement</rdf:li>
     </rdf:Bag>
    </dc:subject>
    <dc:date/>
   </cc:Work>
   <cc:License rdf:about="http://creativecommons.org/licenses/by-sa/4.0/">
    <cc:permits rdf:resource="http://creativecommons.org/ns#Reproduction"/>
    <cc:permits rdf:resource="http://creativecommons.org/ns#Distribution"/>
    <cc:requires rdf:resource="http://creativecommons.org/ns#Notice"/>
    <cc:requires rdf:resource="http://creativecommons.org/ns#Attribution"/>
    <cc:permits rdf:resource="http://creativecommons.org/ns#DerivativeWorks"/>
    <cc:requires rdf:resource="http://creativecommons.org/ns#ShareAlike"/>
   </cc:License>
  </rdf:RDF>
 </metadata>
 <path id="path5" d="m26 3h47c13 0 23 10 23 23v47c0 13-10 23-23 23h-47c-13 0-23-10-23-23v-47c1e-3 -13 10-23 23-23z" fill="#fff" stroke="#000" stroke-width="6"/>
 <circle id="circle7" cx="49.5" cy="49.5" r="30" fill="none" stroke="#000" stroke-width="6"/>
</svg>

<?xml version="1.0" encoding="UTF-8" standalone="no"?>
<svg
   width="99"
   height="99"
   inkscape:version="1.1.1 (3bf5ae0d25, 2021-09-20)"
   sodipodi:docname="ASS_PUITSINFILTRATION.svg"
   version="1.1"
   id="svg9"
   xmlns:inkscape="http://www.inkscape.org/namespaces/inkscape"
   xmlns:sodipodi="http://sodipodi.sourceforge.net/DTD/sodipodi-0.dtd"
   xmlns="http://www.w3.org/2000/svg"
   xmlns:svg="http://www.w3.org/2000/svg"
   xmlns:rdf="http://www.w3.org/1999/02/22-rdf-syntax-ns#"
   xmlns:cc="http://creativecommons.org/ns#"
   xmlns:dc="http://purl.org/dc/elements/1.1/">
  <defs
     id="defs11" />
  <metadata
     id="metadata829">
    <rdf:RDF>
      <cc:Work
         rdf:about="">
        <dc:format>image/svg+xml</dc:format>
        <dc:type
           rdf:resource="http://purl.org/dc/dcmitype/StillImage" />
        <cc:license
           rdf:resource="http://creativecommons.org/licenses/by-sa/4.0/" />
        <dc:creator>
          <cc:Agent>
            <dc:title>ASTEE</dc:title>
          </cc:Agent>
        </dc:creator>
        <dc:contributor>
          <cc:Agent>
            <dc:title>ASTEE; Le Grand Lyon</dc:title>
          </cc:Agent>
        </dc:contributor>
        <dc:language>FR</dc:language>
        <dc:subject>
          <rdf:Bag>
            <rdf:li>eau</rdf:li>
            <rdf:li>potable</rdf:li>
            <rdf:li>assainissement</rdf:li>
          </rdf:Bag>
        </dc:subject>
        <dc:date />
      </cc:Work>
      <cc:License
         rdf:about="http://creativecommons.org/licenses/by-sa/4.0/">
        <cc:permits
           rdf:resource="http://creativecommons.org/ns#Reproduction" />
        <cc:permits
           rdf:resource="http://creativecommons.org/ns#Distribution" />
        <cc:requires
           rdf:resource="http://creativecommons.org/ns#Notice" />
        <cc:requires
           rdf:resource="http://creativecommons.org/ns#Attribution" />
        <cc:permits
           rdf:resource="http://creativecommons.org/ns#DerivativeWorks" />
        <cc:requires
           rdf:resource="http://creativecommons.org/ns#ShareAlike" />
      </cc:License>
    </rdf:RDF>
  </metadata>
  <sodipodi:namedview
     bordercolor="#666666"
     borderopacity="1"
     gridtolerance="10"
     guidetolerance="10"
     inkscape:current-layer="svg9"
     inkscape:cx="13.172"
     inkscape:cy="62.333"
     inkscape:pageopacity="0"
     inkscape:pageshadow="2"
     inkscape:window-height="837"
     inkscape:window-maximized="1"
     inkscape:window-width="1598"
     inkscape:window-x="0"
     inkscape:window-y="0"
     inkscape:zoom="2.1257"
     objecttolerance="10"
     pagecolor="#ffffff"
     showgrid="false"
     id="namedview3"
     inkscape:pagecheckerboard="0" />
  <path
     d="M 26,3 H 73 C 86,3 96,13 96,26 V 73 C 96,86 86,96 73,96 H 26 C 13,96 3,86 3,73 V 26 C 3.001,13 13,3 26,3 Z"
     fill="#ffffff"
     fill-opacity="1"
     stroke="#000000"
     stroke-width="7"
     id="path5"
     style="stroke-width:6;stroke-miterlimit:4;stroke-dasharray:none" />
  <circle
     cx="49.5"
     cy="49.5"
     r="30"
     fill="none"
     stroke="#000000"
     stroke-width="7"
     id="circle7"
     style="stroke-width:6;stroke-miterlimit:4;stroke-dasharray:none" />
</svg>
